X:1
T:Eaton (Wyvill), 88.88.88
T:Eaton (Wyvill), 88.88.88
T:Zerubbabel Wyvill, 1802
T:Public Domain Courtesy of the Cyber Hymnal™
C:Zerubbabel Wyvill, 1802
Z:Public Domain
Z:Courtesy of the Cyber Hymnal™
%%score ( 1 2 ) ( 3 4 )
L:1/8
Q:1/4=110
M:none
K:E
V:1 treble 
V:2 treble 
V:3 bass 
V:4 bass 
V:1
 [B,E]2 | [B,E]2 [DF]2 [EG]2 (BA) | [EG]2 [DF]2 E2 [DF]2 | [EG]2 [F^A]2 [FB]2 [Ee]2 | %4
 [Fd]2 [Fc]2 [DB]2 [DB]2 | [EB]2 [FA]2 [EG]2 [EB]2 | B3 z A [EG]2 [EB]2 | [Ec]2 [Ec]2 [EB]2 [Ee]2 | %8
 [FA]2 [EG]2 [DF]2 E2 | [Ee]2 [Ec]2 (BA) (GE) | [Ee]2 [Ec]2 [DB]2 D2 | (EF) (GA) c z z A x2 | %12
 [EG]2 [DF]2 E2 x |] %13
V:2
 x2 | x6 E2 | x4 E2 x2 | x8 | x8 | x8 | E2 D2 x5 | x8 | x6 E2 | x4 E2 E2 | x6 D2 | C2 E2 E2 B2 E2 | %12
 x4 E2 x |] %13
V:3
 [E,G,]2 | [E,G,]2 [B,,B,]2 [E,B,]2 [A,,C]2 | [B,,B,]2 [B,,B,]2 [E,G,]2 [B,,B,]2 | %3
 [E,B,]2 [E,C]2 [D,B,]2 [G,B,]2 | [F,B,]2 [F,^A,]2 [B,,B,]2 [B,,B,]2 | %5
 [C,B,]2 [D,B,]2 [E,B,]2 [E,G,]2 | [B,,F,]2 [B,,B,]2 [E,B,]2 [E,G,]2 x | %7
 A,2 [A,,A,]2 [E,G,]2 [C,G,]2 | [D,B,]2 [E,B,]2 [B,,B,]2 [E,G,]2 | %9
 [E,G,]2 [A,,A,]2 [E,G,]2 [D,G,]2 | [C,G,]2 [F,^A,]2 [B,,B,]2 [B,,=A,]2 | %11
 [C,G,]2 [C,E,]2 [G,,E]2 [A,,C]2 x2 | B,3 z A, [E,G,]2 |] %13
V:4
 x2 | x8 | x8 | x8 | x8 | x8 | x9 | A,2 x6 | x8 | x8 | x8 | x10 | B,,2 B,,2 x3 |] %13

